**harm	**harte	**timestamp	**phrase	**leadinstrument	**kern
*M4/4	*M4/4	*	*	*	*
*C:	*C:	*	*	*	*C:
1r;	N	0	.	r	1r;
=1	=1	=1	=1	=1	=1
*>A_intro	*>A_intro	*>A_intro	*>A_intro	*>A_intro	*>A_intro
4r	N	0.488	newline	piano	4r
4IV	F:maj	1.232	.	piano	4F 4a 4cc
4I	C:maj	1.976	.	piano	4C 4e 4g
4V	G:maj	2.72	.	piano	4G 4b 4dd
=2	=2	=2	=2	=2	=2
1I	C:maj	3.464	.	piano	1C 1e 1g
=3	=3	=3	=3	=3	=3
*>B_verse	*>B_verse	*>B_verse	*>B_verse	*>B_verse	*>B_verse
2.I	C:maj	6.441	newline	piano	2C 2e 2g
4Im7	C:7	9.017	.	piano	4C 4e 4g 4b
=4	=4	=4	=4	=4	=4
1IV	F:maj	9.875	.	piano	1F 1a 1cc
=5	=5	=5	=5	=5	=5
2.I	C:maj	13.31	.	piano	2C 2e 2g
4Im7	C:7	15.885	.	piano	4C 4e 4g 4b
=6	=6	=6	=6	=6	=6
1IV	F:maj	16.744	.	piano	1F 1a 1cc
=7	=7	=7	=7	=7	=7
2.I	C:maj	20.178	newline	piano	2C 2e 2g
4Im7	C:7	22.773	.	piano	4C 4e 4g 4b
=8	=8	=8	=8	=8	=8
1IV	F:maj	23.638	.	piano	1F 1a 1cc
=9	=9	=9	=9	=9	=9
2I	C:maj	27.099	newline	piano	2C 2e 2g
2V7	G:7	28.831	.	piano	2G 2b 2dd 2ff
=10	=10	=10	=10	=10	=10
2Im7	C:7	30.564	.	piano	2C 2e 2g 2b
2IV	F:maj	32.297	.	piano	2F 2a 2cc
=11	=11	=11	=11	=11	=11
2I	C:maj	34.029	.	piano	2C 2e 2g
2V7	G:7	35.762	.	piano	2G 2b 2dd 2ff
=12	=12	=12	=12	=12	=12
2I	C:maj	37.495	.	piano	2C 2e 2g
2V7	G:7	39.227	.	piano	2G 2b 2dd 2ff
=13	=13	=13	=13	=13	=13
*>B_verse	*>B_verse	*>B_verse	*>B_verse	*>B_verse	*>B_verse
2.I	C:maj	40.96	newline	piano	2C 2e 2g
4Im7	C:7	43.593	.	piano	4C 4e 4g 4b
=14	=14	=14	=14	=14	=14
1IV	F:maj	44.471	.	piano	1F 1a 1cc
=15	=15	=15	=15	=15	=15
2.I	C:maj	47.982	.	piano	2C 2e 2g
4Im7	C:7	50.615	.	piano	4C 4e 4g 4b
=16	=16	=16	=16	=16	=16
1IV	F:maj	51.493	.	piano	1F 1a 1cc
=17	=17	=17	=17	=17	=17
2.I	C:maj	55.004	newline	piano	2C 2e 2g
4Im7	C:7	57.626	.	piano	4C 4e 4g 4b
=18	=18	=18	=18	=18	=18
1IV	F:maj	58.5	.	piano	1F 1a 1cc
=19	=19	=19	=19	=19	=19
2I	C:maj	61.997	newline	piano	2C 2e 2g
2V7	G:7	63.752	.	piano	2G 2b 2dd 2ff
=20	=20	=20	=20	=20	=20
2Im7	C:7	65.507	.	piano	2C 2e 2g 2b
2IV	F:maj	67.262	.	piano	2F 2a 2cc
=21	=21	=21	=21	=21	=21
2I	C:maj	69.017	.	piano	2C 2e 2g
2V7	G:7	70.772	.	piano	2G 2b 2dd 2ff
=22	=22	=22	=22	=22	=22
1I	C:maj	72.527	.	piano	1C 1e 1g
=23	=23	=23	=23	=23	=23
*>C_bridge	*>C_bridge	*>C_bridge	*>C_bridge	*>C_bridge	*>C_bridge
2IV	F:maj	76.038	newline	strings	2F 2a 2cc
2V	G:maj	77.77	.	strings	2G 2b 2dd
=24	=24	=24	=24	=24	=24
2.I	C:maj	79.503	.	strings	2C 2e 2g
4Im7	C:7	82.103	.	strings	4C 4e 4g 4b
=25	=25	=25	=25	=25	=25
2IV	F:maj	82.969	.	strings	2F 2a 2cc
2V	G:maj	84.702	.	strings	2G 2b 2dd
=26	=26	=26	=26	=26	=26
2.I	C:maj	86.435	.	strings	2C 2e 2g
4Im7	C:7	89.034	.	strings	4C 4e 4g 4b
=27	=27	=27	=27	=27	=27
2IV	F:maj	89.9	newline	piano	2F 2a 2cc
2V	G:maj	91.614	.	piano	2G 2b 2dd
=28	=28	=28	=28	=28	=28
2I	C:maj	93.328	.	piano	2C 2e 2g
2vi	A:min	95.042	.	piano	2A 2cc 2ee
=29	=29	=29	=29	=29	=29
1IV	F:maj	96.755	.	piano	1F 1a 1cc
=30	=30	=30	=30	=30	=30
2ii7	D:min7	100.183	.	piano	2D 2f 2a 2cc
2V	G:maj	101.897	.	piano	2G 2b 2dd
=31	=31	=31	=31	=31	=31
*>B2_verse	*>B2_verse	*>B2_verse	*>B2_verse	*>B2_verse	*>B2_verse
2.I	C:maj	103.61	newline	piano	2C 2e 2g
4Im7	C:7	106.257	.	piano	4C 4e 4g 4b
=32	=32	=32	=32	=32	=32
1IV	F:maj	107.139	.	piano	1F 1a 1cc
=33	=33	=33	=33	=33	=33
2.I	C:maj	110.668	.	piano	2C 2e 2g
4Im7	C:7	113.314	.	piano	4C 4e 4g 4b
=34	=34	=34	=34	=34	=34
1IV	F:maj	114.196	.	piano	1F 1a 1cc
=35	=35	=35	=35	=35	=35
2.I	C:maj	117.725	newline	piano	2C 2e 2g
4Im7	C:7	120.347	.	piano	4C 4e 4g 4b
=36	=36	=36	=36	=36	=36
1IV	F:maj	121.221	.	piano	1F 1a 1cc
=37	=37	=37	=37	=37	=37
2I	C:maj	124.718	newline	piano	2C 2e 2g
2V7	G:7	126.49	.	piano	2G 2b 2dd 2ff
=38	=38	=38	=38	=38	=38
2Im7	C:7	128.262	.	piano	2C 2e 2g 2b
2IV	F:maj	130.034	.	piano	2F 2a 2cc
=39	=39	=39	=39	=39	=39
2I	C:maj	131.806	.	piano	2C 2e 2g
2V7	G:7	133.578	.	piano	2G 2b 2dd 2ff
=40	=40	=40	=40	=40	=40
4I	C:maj	135.35	newline	piano	4C 4e 4g
4IV	F:maj	136.226	.	piano	4F 4a 4cc
4I	C:maj	137.103	.	piano	4C 4e 4g
4V	G:maj	137.979	.	piano	4G 4b 4dd
=41	=41	=41	=41	=41	=41
1I	C:maj	138.856	.	piano	1C 1e 1g
1r;	N	145.868	.	r	1r;
1r;	N	149.525	.	r	1r;
*-	*-	*-	*-	*-	*-
!!!OTL: Last Date
!!!COC: Floyd Cramer
!!!BillboardChartDate: 1960/12/31
!!!BillboardPeak: 2
!!!BillboardWeeksOnChart: 20
!!!SampleTargetRank: 2
!!!SampleActualRank: 3
!!!SampleID#: 0788
!!!RDF**harmony: **recip + pitch class of root + harmonic quality
!!!RDF**harte: Chris Harte's syntax, used by MIREX
!!!RDF**phrase: newline = linebreak in original McGill transcription
!!!RDF**timestamp: McGill audio timestamp in seconds
!!!RDF**leadinstrument: original McGill primary instrumentation annotation
!!!RDT: 2017/01/12/
!!!ENC: Nathaniel Condit-Schultz
!!!EST: Awating manual error checking and editing.
